X: 1
T: Reinlender i D
Z: John Chambers <jc@trillian.mit.edu>
R: shottish
M: 4/4
L: 1/8
K: D
|: FG \
| "D"A>B AG GF FD | "Em"E>F GF FE E-E | "A7"E2 c>c cB cB | "D"B2 AG GF [F2D2] |
| "D"A>B AG GF FD | "Em"E>F GF FE E-E | "A7"E2 c>c cA Bc | "D"d>e dc d2 :|
|: de \
| "D"f2 d>d dA FA | "G"d>c BA "Em"B4 | "A7"E2 c>c cB cB | "D"B2 AG GF [F2D2] |
| "D"f2 d>d dA FA | "G"d>c BA "Em"B4 | "A7"E2 c>c cA Bc | "D"d>e dc d2 :|
